!!!OTL: 223. Morgenlied in der ֵSchoenen Jahreszeit.
!!!COM: F. K. Ludw. Scholinus
!!!ODT: 1812
!!!ARE: Europa, Mitteleuropa, Deutschland
!!!SCT: B0223
!!!TXL: @@DE
!!!YEM: Copyright 1995, estate of Helmut Schaffrath.
**kern	**text
*ICvox	*
*Ivox	*
*M4/4	*
*met(c)	*
*clefG2	*
*k[]	*
*C:	*
!LO:TX:a:t=Nicht ʒu langſam.	!
{4g	Er-
=1	=1
4a	-wacht
4g	von
4a	ſü-
4b	-ßem
=2	=2
4cc	Schlummer,
4g	.
4r}	.
{4cc	ge-
=3	=3
4b	-ſtärkt
4dd	durch
4cc	ſanf-
4ee	-te
=4	=4
2dd	Ruh,
4r}	.
{4g	jauchʒt,
=5	=5
4ee	Va-
4dd	-ter,
4cc	frei
4b	von
=6	=6
4b/	Kum-
4a	-mer,
4r}	.
{4g	Preis
=7	=7
4a	un-
4dd	-ſer
4cc	Herʒ
4b	dir
=8	=8
2cc	ʒu!
4r}	.
==	==
!!!AGN: Tageszeiten - Lied, Morgen
!!!GTL: Tageszeitenlieder
!!!ONB: ESAC (Essen Associative Code) Database: BOEHME
!!!AMT: simple quadruple
!!!AIN: vox
!!!EED: Helmut Schaffrath
!!!EEV: 1.0
!!F. K. Ludw. Scholinus. (1812).
!!@@COMMENT:"Gedicht von Joh. Kasper Lavater. 1772."
!!@@END:
!!!Text: Joh. K. Lavater
!!!URL-scan: https://archive.org/details/BoehmeVtLieder1895/page/n203/mode/2up
!!!ENC: Anna Maria Matuszewska
!!!EEV: 2024/24/06
*-	*-
